Yaru++/mimetypes/48/application-ipynb.svg

<svg id="svg35" height="48" viewBox="0 0 12.7 12.7" width="48" xmlns="http://www.w3.org/2000/svg" xmlns:xlink="http://www.w3.org/1999/xlink">
  <linearGradient id="linearGradient1004" gradientUnits="userSpaceOnUse" x1="344" x2="344" y1="62" y2="106">
    <stop id="stop923" offset="0" stop-color="#fff"/>
    <stop id="stop933" offset=".125" stop-color="#fff" stop-opacity=".098039"/>
    <stop id="stop931" offset=".92500001" stop-color="#fff" stop-opacity=".098039"/>
    <stop id="stop925" offset="1" stop-color="#fff" stop-opacity=".498039"/>
  </linearGradient>
  <clipPath id="clipPath994-7">
    <path id="path996-5" d="m335.73108 62c-8.82418 0-9.77365.90635-9.7304 9.74838v12.25162 12.25162c-.0433 8.84203.90622 9.74838 9.7304 9.74838h16.53919c8.82418 0 9.7304-.90625 9.7304-9.74838v-12.25162-12.25162c0-8.84213-.90622-9.74838-9.7304-9.74838z"/>
  </clipPath>
  <linearGradient id="linearGradient1024" gradientTransform="matrix(0 -.02997233 .02997147 0 -3.039658 13.626036)" gradientUnits="userSpaceOnUse" x1="459.03448" x2="35.310345" y1="419.23337" y2="207.36522">
    <stop id="stop4340" offset="0" stop-color="#f2f2f2"/>
    <stop id="stop4342" offset="1" stop-color="#f9f9f9"/>
  </linearGradient>
  <path id="path1020" d="m4.1624031.39686945c-.5882111 0-1.0513696.0135414-1.4324701.0775147-.3811032.063972-.692957.18396453-.9213929.41186098-.2284333.22789677-.3490013.53961007-.412377.92087407-.0633756.3812644-.0757475.845434-.0728636 1.4350545v3.2401124 3.2416626c-.00286.5887143.00955 1.0526493.072864 1.4335033.063376.381265.1839437.692978.412377.920875.2284359.227896.5402897.34789.9213929.411861.3811032.06397.844259.07752 1.4324701.07752h4.3759596c.5882111 0 1.0511261-.01352 1.4314382-.07752.3803117-.064.6912127-.184399.9188047-.412377.227595-.227978.347451-.53947.411345-.920359.06389-.380886.07752-.844114.07752-1.4335033v-3.2416626-3.2416626c0-.5893895-.01363-1.0526162-.07752-1.4335043-.063894-.3808878-.18375-.6923783-.411345-.92035727-.227592-.22797879-.538493-.34837796-.9188051-.41237776-.3803121-.06400006-.8432271-.07751472-1.4314382-.07751472z" opacity=".1"/>
  <path id="path958" d="m4.1625645.39686945c-2.334731 0-2.5859449.23980511-2.5745017 2.57925885v3.2415745 3.2415744c-.011456 2.3394538.2397707 2.5792588 2.5745017 2.5792588h4.375994c2.3347315 0 2.5745015-.239779 2.5745015-2.5792588v-3.2415744-3.2415745c0-2.3394802-.23977-2.57925885-2.5745015-2.57925885z" fill="none" opacity=".2" stroke="#000" stroke-width=".529167"/>
  <path id="path964" d="m4.1625645.39686945c-2.334731 0-2.5859449.23980511-2.5745017 2.57925885v3.2415745 3.2415744c-.011456 2.3394538.2397707 2.5792588 2.5745017 2.5792588h4.375994c2.3347315 0 2.5745015-.239779 2.5745015-2.5792588v-3.2415744-3.2415745c0-2.3394802-.23977-2.57925885-2.5745015-2.57925885z" fill="url(#linearGradient1024)"/>
  <g id="g960-6" enable-background="new" fill="#f37726" transform="matrix(.05545274 0 0 .05545274 -2.078298 -2.488378)">
    <path id="path8-7" d="m151.99729 112.07448c-21.84378 0-41.54112 12.14985-49.91725 30.78895 12.31958-6.85863 30.61924-10.82206 49.91725-10.82206 19.29802.009 37.5877 3.9834 49.89729 10.84203-8.36613-18.63909-28.0535-30.78896-49.89729-30.80892zm-49.89727 59.04212c8.36613 18.63909 28.05349 30.78896 49.89727 30.80892 21.84379 0 41.54114-12.14985 49.91726-30.78895-12.31958 6.85863-30.61924 10.82206-49.91726 10.82206-19.29801-.009-37.58769-3.9834-49.89727-10.84203z"/>
    <circle id="circle10-5" cx="112.06352" cy="206.91725" r="9.98345"/>
    <circle id="circle12-3" cx="191.93114" cy="107.08275" r="9.98345"/>
    <circle id="circle14-5" cx="109.56765" cy="109.57862" r="7.487588"/>
  </g>
  <g fill="#fff">
    <path id="path1006" d="m1.5878829 6.2177028v3.2416625c-.011456 2.3394527.2397892 2.5791707 2.5745202 2.5791707h4.3759596c2.3347313 0 2.5745203-.239691 2.5745203-2.5791707v-3.2416625z" opacity=".2"/>
    <path id="path1013" d="m6.3503829.39686945v11.64166655h2.1879798c2.3347313 0 2.5745203-.239691 2.5745203-2.5791707v-3.2416625-3.2416626c0-2.33948021-.239789-2.57917075-2.5745203-2.57917075z" opacity=".1"/>
    <path id="path4254-3" d="m7.8205164 12.033755 3.2769286-3.2769254v1.2279687c-.0029 1.8566947-.207688 2.0489567-2.0848934 2.0489567z"/>
  </g>
  <path id="path990" clip-path="url(#clipPath994-7)" d="m335.73108 62c-8.82418 0-9.77365.90635-9.7304 9.74838v12.25162 12.25162c-.0433 8.84203.90622 9.74838 9.7304 9.74838h16.53919c8.82418 0 9.7304-.90625 9.7304-9.74838v-12.25162-12.25162c0-8.84213-.90622-9.74838-9.7304-9.74838z" fill="none" opacity=".4" stroke="url(#linearGradient1004)" stroke-width="2" transform="matrix(.26458333 0 0 .26458333 -84.666283 -16.007297)"/>
</svg>

<?xml version="1.0" encoding="UTF-8" standalone="no"?>
<svg
   xmlns:dc="http://purl.org/dc/elements/1.1/"
   xmlns:cc="http://creativecommons.org/ns#"
   xmlns:rdf="http://www.w3.org/1999/02/22-rdf-syntax-ns#"
   xmlns:svg="http://www.w3.org/2000/svg"
   xmlns="http://www.w3.org/2000/svg"
   xmlns:xlink="http://www.w3.org/1999/xlink"
   xmlns:sodipodi="http://sodipodi.sourceforge.net/DTD/sodipodi-0.dtd"
   xmlns:inkscape="http://www.inkscape.org/namespaces/inkscape"
   height="48"
   viewBox="0 0 12.7 12.7"
   width="48"
   version="1.1"
   id="svg35"
   sodipodi:docname="3 48.svg"
   inkscape:version="0.92.5 (2060ec1f9f, 2020-04-08)">
  <metadata
     id="metadata41">
    <rdf:RDF>
      <cc:Work
         rdf:about="">
        <dc:format>image/svg+xml</dc:format>
        <dc:type
           rdf:resource="http://purl.org/dc/dcmitype/StillImage" />
        <dc:title></dc:title>
      </cc:Work>
    </rdf:RDF>
  </metadata>
  <defs
     id="defs39">
    <clipPath
       clipPathUnits="userSpaceOnUse"
       id="clipPath994">
      <path
         style="color:#000000;display:inline;overflow:visible;visibility:visible;fill:#cdcdcd;fill-opacity:1;fill-rule:nonzero;stroke:none;stroke-width:2;stroke-miterlimit:4;stroke-dasharray:none;stroke-opacity:1;marker:none;enable-background:accumulate"
         d="m 335.73108,62 c -8.82418,0 -9.77365,0.90635 -9.7304,9.74838 V 84 96.25162 c -0.0433,8.84203 0.90622,9.74838 9.7304,9.74838 h 16.53919 c 8.82418,0 9.7304,-0.90625 9.7304,-9.74838 V 84 71.74838 C 362.00067,62.90625 361.09445,62 352.27027,62 Z"
         id="path996"
         inkscape:connector-curvature="0"
         sodipodi:nodetypes="scccssscsss" />
    </clipPath>
    <linearGradient
       inkscape:collect="always"
       xlink:href="#linearGradient927"
       id="linearGradient1004"
       x1="344"
       y1="62"
       x2="344"
       y2="106"
       gradientUnits="userSpaceOnUse" />
    <linearGradient
       inkscape:collect="always"
       id="linearGradient927">
      <stop
         style="stop-color:#ffffff;stop-opacity:1;"
         offset="0"
         id="stop923" />
      <stop
         id="stop933"
         offset="0.125"
         style="stop-color:#ffffff;stop-opacity:0.09803922" />
      <stop
         id="stop931"
         offset="0.92500001"
         style="stop-color:#ffffff;stop-opacity:0.09803922" />
      <stop
         style="stop-color:#ffffff;stop-opacity:0.49803922"
         offset="1"
         id="stop925" />
    </linearGradient>
    <clipPath
       clipPathUnits="userSpaceOnUse"
       id="clipPath994-7">
      <path
         style="color:#000000;display:inline;overflow:visible;visibility:visible;fill:#cdcdcd;fill-opacity:1;fill-rule:nonzero;stroke:none;stroke-width:2;stroke-miterlimit:4;stroke-dasharray:none;stroke-opacity:1;marker:none;enable-background:accumulate"
         d="m 335.73108,62 c -8.82418,0 -9.77365,0.90635 -9.7304,9.74838 V 84 96.25162 c -0.0433,8.84203 0.90622,9.74838 9.7304,9.74838 h 16.53919 c 8.82418,0 9.7304,-0.90625 9.7304,-9.74838 V 84 71.74838 C 362.00067,62.90625 361.09445,62 352.27027,62 Z"
         id="path996-5"
         inkscape:connector-curvature="0"
         sodipodi:nodetypes="scccssscsss" />
    </clipPath>
    <linearGradient
       inkscape:collect="always"
       xlink:href="#linearGradient4338"
       id="linearGradient1024"
       gradientUnits="userSpaceOnUse"
       gradientTransform="matrix(0,-0.02997233,0.02997147,0,-3.0396584,13.626036)"
       x1="459.03448"
       y1="419.23337"
       x2="35.310345"
       y2="207.36522" />
    <linearGradient
       inkscape:collect="always"
       id="linearGradient4338">
      <stop
         style="stop-color:#f2f2f2;stop-opacity:1"
         offset="0"
         id="stop4340" />
      <stop
         style="stop-color:#f9f9f9;stop-opacity:1"
         offset="1"
         id="stop4342" />
    </linearGradient>
  </defs>
  <sodipodi:namedview
     pagecolor="#ffffff"
     bordercolor="#666666"
     borderopacity="1"
     objecttolerance="10"
     gridtolerance="10"
     guidetolerance="10"
     inkscape:pageopacity="0"
     inkscape:pageshadow="2"
     inkscape:window-width="1920"
     inkscape:window-height="1016"
     id="namedview37"
     showgrid="false"
     inkscape:zoom="4.9166667"
     inkscape:cx="-12.711864"
     inkscape:cy="24"
     inkscape:window-x="0"
     inkscape:window-y="27"
     inkscape:window-maximized="1"
     inkscape:current-layer="svg35" />
  <linearGradient
     id="a"
     gradientUnits="userSpaceOnUse"
     x1="344"
     x2="344"
     y1="62"
     y2="106">
    <stop
       offset="0"
       stop-color="#fff"
       id="stop2" />
    <stop
       offset=".125"
       stop-color="#fff"
       stop-opacity=".098039"
       id="stop4" />
    <stop
       offset=".92500001"
       stop-color="#fff"
       stop-opacity=".098039"
       id="stop6" />
    <stop
       offset="1"
       stop-color="#fff"
       stop-opacity=".498039"
       id="stop8" />
  </linearGradient>
  <clipPath
     id="b">
    <path
       d="m335.73108 62c-8.82418 0-9.77365.90635-9.7304 9.74838v12.25162 12.25162c-.0433 8.84203.90622 9.74838 9.7304 9.74838h16.53919c8.82418 0 9.7304-.90625 9.7304-9.74838v-12.25162-12.25162c0-8.84213-.90622-9.74838-9.7304-9.74838z"
       id="path11" />
  </clipPath>
  <linearGradient
     id="c"
     gradientTransform="matrix(0 -.02997233 .02997147 0 -3.039659 297.92607)"
     gradientUnits="userSpaceOnUse"
     x1="459.03448"
     x2="35.310345"
     y1="419.23337"
     y2="207.36522">
    <stop
       offset="0"
       stop-color="#f2f2f2"
       id="stop14" />
    <stop
       offset="1"
       stop-color="#f9f9f9"
       id="stop16" />
  </linearGradient>
  <path
     style="color:#000000;font-style:normal;font-variant:normal;font-weight:normal;font-stretch:normal;font-size:medium;line-height:normal;font-family:sans-serif;font-variant-ligatures:normal;font-variant-position:normal;font-variant-caps:normal;font-variant-numeric:normal;font-variant-alternates:normal;font-feature-settings:normal;text-indent:0;text-align:start;text-decoration:none;text-decoration-line:none;text-decoration-style:solid;text-decoration-color:#000000;letter-spacing:normal;word-spacing:normal;text-transform:none;writing-mode:lr-tb;direction:ltr;text-orientation:mixed;dominant-baseline:auto;baseline-shift:baseline;text-anchor:start;white-space:normal;shape-padding:0;clip-rule:nonzero;display:inline;overflow:visible;visibility:visible;opacity:0.1;isolation:auto;mix-blend-mode:normal;color-interpolation:sRGB;color-interpolation-filters:linearRGB;solid-color:#000000;solid-opacity:1;vector-effect:none;fill:#000000;fill-opacity:1;fill-rule:nonzero;stroke:none;stroke-width:0.52916664;stroke-linecap:butt;stroke-linejoin:miter;stroke-miterlimit:4;stroke-dasharray:none;stroke-dashoffset:0;stroke-opacity:1;marker:none;color-rendering:auto;image-rendering:auto;shape-rendering:auto;text-rendering:auto;enable-background:accumulate"
     d="m 4.1624031,0.39686945 c -0.5882111,0 -1.0513696,0.0135414 -1.4324701,0.0775147 C 2.3488298,0.53835615 2.036976,0.65834868 1.8085401,0.88624513 1.5801068,1.1141419 1.4595388,1.4258552 1.3961631,1.8071192 1.3327875,2.1883836 1.3204156,2.6525532 1.3232995,3.2421737 v 3.2401124 3.2416626 c -0.00286,0.5887143 0.00955,1.0526493 0.072864,1.4335033 0.063376,0.381265 0.1839437,0.692978 0.412377,0.920875 0.2284359,0.227896 0.5402897,0.34789 0.9213929,0.411861 0.3811032,0.06397 0.844259,0.07752 1.4324701,0.07752 h 4.3759596 c 0.5882111,0 1.0511261,-0.01352 1.4314382,-0.07752 0.3803117,-0.064 0.6912127,-0.184399 0.9188047,-0.412377 0.227595,-0.227978 0.347451,-0.53947 0.411345,-0.920359 0.06389,-0.380886 0.07752,-0.844114 0.07752,-1.4335033 V 6.4822861 3.2406235 c 0,-0.5893895 -0.01363,-1.0526162 -0.07752,-1.4335043 C 11.236057,1.4262314 11.116201,1.1147409 10.888606,0.88676193 10.661014,0.65878314 10.350113,0.53838397 9.9698009,0.47438417 9.5894888,0.41038411 9.1265738,0.39686945 8.5383627,0.39686945 Z"
     id="path1020"
     inkscape:connector-curvature="0"
     sodipodi:nodetypes="sccsccccccsscccscsccsss" />
  <path
     style="color:#000000;display:inline;overflow:visible;visibility:visible;opacity:0.2;fill:none;fill-opacity:1;fill-rule:nonzero;stroke:#000000;stroke-width:0.52916664;stroke-miterlimit:4;stroke-dasharray:none;stroke-opacity:1;marker:none;enable-background:accumulate"
     d="m 4.1625645,0.39686945 c -2.334731,0 -2.5859449,0.23980511 -2.5745017,2.57925885 v 3.2415745 3.2415744 c -0.011456,2.3394538 0.2397707,2.5792588 2.5745017,2.5792588 h 4.375994 c 2.3347315,0 2.5745015,-0.239779 2.5745015,-2.5792588 V 6.2177028 2.9761283 c 0,-2.3394802 -0.23977,-2.57925885 -2.5745015,-2.57925885 z"
     id="path958"
     inkscape:connector-curvature="0"
     sodipodi:nodetypes="scccssscsss" />
  <path
     style="color:#000000;display:inline;overflow:visible;visibility:visible;fill:url(#linearGradient1024);fill-opacity:1;fill-rule:nonzero;stroke:none;stroke-width:0.26458332;marker:none;enable-background:accumulate"
     d="m 4.1625645,0.39686945 c -2.334731,0 -2.5859449,0.23980511 -2.5745017,2.57925885 v 3.2415745 3.2415744 c -0.011456,2.3394538 0.2397707,2.5792588 2.5745017,2.5792588 h 4.375994 c 2.3347315,0 2.5745015,-0.239779 2.5745015,-2.5792588 V 6.2177028 2.9761283 c 0,-2.3394802 -0.23977,-2.57925885 -2.5745015,-2.57925885 z"
     id="path964"
     inkscape:connector-curvature="0"
     sodipodi:nodetypes="scccssscsss" />
  <g
     style="display:inline;enable-background:new"
     id="g960-6"
     transform="matrix(0.05545274,0,0,0.05545274,-2.0782976,-2.488378)">
    <path
       id="path8-7"
       style="opacity:1;fill:#f37726;fill-opacity:1;stroke:none;stroke-width:9.98344994"
       d="m 151.99729,112.07448 c -21.84378,0 -41.54112,12.14985 -49.91725,30.78895 12.31958,-6.85863 30.61924,-10.82206 49.91725,-10.82206 19.29802,0.009 37.5877,3.9834 49.89729,10.84203 -8.36613,-18.63909 -28.0535,-30.78896 -49.89729,-30.80892 z m -49.89727,59.04212 c 8.36613,18.63909 28.05349,30.78896 49.89727,30.80892 21.84379,0 41.54114,-12.14985 49.91726,-30.78895 -12.31958,6.85863 -30.61924,10.82206 -49.91726,10.82206 -19.29801,-0.009 -37.58769,-3.9834 -49.89727,-10.84203 z"
       inkscape:connector-curvature="0" />
    <circle
       id="circle10-5"
       style="opacity:1;fill:#f37726;fill-opacity:1;stroke:none;stroke-width:9.98344994"
       r="9.9834499"
       cy="206.91725"
       cx="112.06352" />
    <circle
       id="circle12-3"
       style="opacity:1;fill:#f37726;fill-opacity:1;stroke:none;stroke-width:9.98344994"
       r="9.9834499"
       cy="107.08275"
       cx="191.93114" />
    <circle
       id="circle14-5"
       style="opacity:1;fill:#f37726;fill-opacity:1;stroke:none;stroke-width:9.98344994"
       r="7.4875879"
       cy="109.57862"
       cx="109.56765" />
  </g>
  <path
     style="color:#000000;display:inline;overflow:visible;visibility:visible;opacity:0.2;fill:#ffffff;fill-opacity:1;fill-rule:nonzero;stroke:none;stroke-width:0.26458332;marker:none;enable-background:accumulate"
     d="m 1.5878829,6.2177028 v 3.2416625 c -0.011456,2.3394527 0.2397892,2.5791707 2.5745202,2.5791707 h 4.3759596 c 2.3347313,0 2.5745203,-0.239691 2.5745203,-2.5791707 V 6.2177028 Z"
     id="path1006"
     inkscape:connector-curvature="0" />
  <path
     style="color:#000000;display:inline;overflow:visible;visibility:visible;opacity:0.1;fill:#ffffff;fill-opacity:1;fill-rule:nonzero;stroke:none;stroke-width:0.26458332;marker:none;enable-background:accumulate"
     d="M 6.3503829,0.39686945 V 12.038536 h 2.1879798 c 2.3347313,0 2.5745203,-0.239691 2.5745203,-2.5791707 V 6.2177028 2.9760402 c 0,-2.33948021 -0.239789,-2.57917075 -2.5745203,-2.57917075 z"
     id="path1013"
     inkscape:connector-curvature="0" />
  <path
     style="color:#000000;display:inline;overflow:visible;visibility:visible;opacity:1;fill:#ffffff;fill-opacity:1;fill-rule:nonzero;stroke:none;stroke-width:0.43692356;stroke-linecap:butt;stroke-linejoin:miter;stroke-miterlimit:4;stroke-dasharray:none;stroke-dashoffset:0;stroke-opacity:1;marker:none;enable-background:accumulate"
     d="M 7.8205164,12.033755 11.097445,8.7568296 v 1.2279687 c -0.0029,1.8566947 -0.207688,2.0489567 -2.0848934,2.0489567 z"
     id="path4254-3"
     inkscape:connector-curvature="0"
     sodipodi:nodetypes="cccsc" />
  <path
     transform="matrix(0.26458333,0,0,0.26458333,-84.666283,-16.007297)"
     sodipodi:nodetypes="scccssscsss"
     inkscape:connector-curvature="0"
     id="path990"
     d="m 335.73108,62 c -8.82418,0 -9.77365,0.90635 -9.7304,9.74838 V 84 96.25162 c -0.0433,8.84203 0.90622,9.74838 9.7304,9.74838 h 16.53919 c 8.82418,0 9.7304,-0.90625 9.7304,-9.74838 V 84 71.74838 C 362.00067,62.90625 361.09445,62 352.27027,62 Z"
     style="color:#000000;display:inline;overflow:visible;visibility:visible;opacity:0.4;fill:none;fill-opacity:1;fill-rule:nonzero;stroke:url(#linearGradient1004);stroke-width:2;stroke-miterlimit:4;stroke-dasharray:none;stroke-opacity:1;marker:none;enable-background:accumulate"
     clip-path="url(#clipPath994-7)" />
</svg>
